X:1
T:[ID 1-137]
T:[ID 1-137]
T:Bezeichnung standardisiert: Drum sag ich noch einmal; Courante 14. In dieser Quelle auch als: Courant Drum frag ich noch einmahl
T:Urheber unbekannt Erstbeleg: vor 1767 (Datum in der schriftlichen Quelle) Datum in der hier transkribierten schriftlichen Quelle: 1775
C:Urheber unbekannt
C:Erstbeleg: vor 1767 (Datum in der schriftlichen Quelle)
C:Datum in der hier transkribierten schriftlichen Quelle: 1775
L:1/8
M:2/4
K:D
V:1 treble 
V:1
 FDFA | df f2 | CA,CA | ce e2 | FDFA | dffe | dc/B/ A/G/F/E/ | F2 F2 :: f/e/d/e/ f/e/d/e/ | %9
 f/e/d/e/ f2 | e/d/c/d/ e/d/c/d/ | e/d/c/d/ e2 | FDFA | dffe | dc/B/ A/G/F/E/ | F2 F2 :| %16

